X:3
T:Getting Up Stairs I Never Did See
M:4/4
L:1/8
S:John Locke (1909)
K:A
ed | c2A2E2A2 | GABc dfed | c2A2E2A2 | GABG A2 :|
e2 | c3d e2A2 | c2d2e4 | f2e2d2c2 | B2c2 dfed | 
c3d e2A2 | c2d2 e4 | f2e2d2c2 | B2c2 dfed ||
